src/assets/duotone/Gps.svg

<svg width="24" height="24" viewBox="0 0 24 24"  xmlns="http://www.w3.org/2000/svg">
<path opacity="0.4" d="M12 20C16.4183 20 20 16.4183 20 12C20 7.58172 16.4183 4 12 4C7.58172 4 4 7.58172 4 12C4 16.4183 7.58172 20 12 20Z" />
<path d="M11.9999 15.1199C13.723 15.1199 15.1199 13.723 15.1199 11.9999C15.1199 10.2768 13.723 8.87988 11.9999 8.87988C10.2768 8.87988 8.87988 10.2768 8.87988 11.9999C8.87988 13.723 10.2768 15.1199 11.9999 15.1199Z" />
<path d="M12.75 2V4.04H12.74C12.5 4.01 12.25 4 12 4C11.75 4 11.5 4.01 11.26 4.04H11.25V2C11.25 1.59 11.59 1.25 12 1.25C12.41 1.25 12.75 1.59 12.75 2Z" />
<path d="M4 12C4 12.25 4.01 12.51 4.04 12.75H2C1.59 12.75 1.25 12.41 1.25 12C1.25 11.59 1.59 11.25 2 11.25H4.04C4.01 11.49 4 11.75 4 12Z" />
<path d="M12.75 19.96V22C12.75 22.41 12.41 22.75 12 22.75C11.59 22.75 11.25 22.41 11.25 22V19.96H11.26C11.5 19.99 11.75 20 12 20C12.25 20 12.5 19.99 12.74 19.96H12.75Z" />
<path d="M22.75 12C22.75 12.41 22.41 12.75 22 12.75H19.96C19.99 12.51 20 12.25 20 12C20 11.75 19.99 11.49 19.96 11.25H22C22.41 11.25 22.75 11.59 22.75 12Z" />
</svg>

<?xml version="1.0" encoding="UTF-8"?>
<svg width="24" height="24" viewBox="0 0 24 24" xmlns="http://www.w3.org/2000/svg">
 <path d="m12 20c4.4183 0 8-3.5817 8-8 0-4.4183-3.5817-8-8-8-4.4183 0-8 3.5817-8 8 0 4.4183 3.5817 8 8 8z" opacity=".4"/>
 <path d="m12 15.12c1.7231 0 3.12-1.3969 3.12-3.12s-1.3969-3.12-3.12-3.12-3.12 1.3969-3.12 3.12 1.3969 3.12 3.12 3.12z"/>
 <path d="m12.75 2v2.04h-0.01c-0.24-0.03-0.49-0.04-0.74-0.04s-0.5 0.01-0.74 0.04h-0.01v-2.04c0-0.41 0.34-0.75 0.75-0.75s0.75 0.34 0.75 0.75z"/>
 <path d="m4 12c0 0.25 0.01 0.51 0.04 0.75h-2.04c-0.41 0-0.75-0.34-0.75-0.75s0.34-0.75 0.75-0.75h2.04c-0.03 0.24-0.04 0.5-0.04 0.75z"/>
 <path d="m12.75 19.96v2.04c0 0.41-0.34 0.75-0.75 0.75s-0.75-0.34-0.75-0.75v-2.04h0.01c0.24 0.03 0.49 0.04 0.74 0.04s0.5-0.01 0.74-0.04h0.01z"/>
 <path d="m22.75 12c0 0.41-0.34 0.75-0.75 0.75h-2.04c0.03-0.24 0.04-0.5 0.04-0.75s-0.01-0.51-0.04-0.75h2.04c0.41 0 0.75 0.34 0.75 0.75z"/>
</svg>
